apps/portfolio/src/portfolio/static/assets/icons/high-pressure_vessels.svg

<svg
  width="800px"
  height="800px"
  viewBox="0 0 24 24"
  fill="none"
  xmlns="http://www.w3.org/2000/svg"
>
  <path
    d="m13 13 3-5 m-8 0 h0.01 m3.99-2 h0.01 m5.99 6 h0.01 m-12.01 0 h0.01 m7.99 3 c0 1.1046-0.8954 2-2 2
      s-2-0.8954-2-2 0.8954-2 2-2 2 0.8954 2 2 z m7-3 c0 4.9706-4.0294 9-9 9 s-9-4.0294-9-9 4.0294-9 9-9 9 4.0294 9 9 z"
    stroke="#fff"
    stroke-width="2"
    stroke-linecap="round"
    stroke-linejoin="round"
  />
</svg>

<?xml version="1.0" encoding="utf-8"?>
<svg width="800px" height="800px" viewBox="0 0 24 24" fill="none" xmlns="http://www.w3.org/2000/svg">
<path d="M13 13L16 8M8 8H8.01M12 6H12.01M18 12H18.01M6 12H6.01M14 15C14 16.1046 13.1046 17 12 17C10.8954 17 10 16.1046 10 15C10 13.8954 10.8954 13 12 13C13.1046 13 14 13.8954 14 15ZM21 12C21 16.9706 16.9706 21 12 21C7.02944 21 3 16.9706 3 12C3 7.02944 7.02944 3 12 3C16.9706 3 21 7.02944 21 12Z" stroke="#000000" stroke-width="2" stroke-linecap="round" stroke-linejoin="round"/>
</svg>
